svg/fluentui-system-icons/ic_fluent_code_16_filled.svg

<svg width="16" height="16" viewBox="0 0 16 16" fill="none" xmlns="http://www.w3.org/2000/svg">
<path d="M9.9046 2.81483C10.2831 2.98306 10.4536 3.42628 10.2854 3.80479L6.28536 12.8048C6.11713 13.1833 5.67391 13.3538 5.2954 13.1855C4.91688 13.0173 4.74641 12.5741 4.91464 12.1956L8.91464 3.19558C9.08287 2.81707 9.52609 2.6466 9.9046 2.81483ZM4.49827 5.18963C4.80786 5.46482 4.83575 5.93887 4.56056 6.24846L3.00347 8.00019L4.56056 9.75191C4.83575 10.0615 4.80786 10.5356 4.49827 10.8107C4.18869 11.0859 3.71463 11.058 3.43944 10.7485L1.43944 8.49846C1.18685 8.2143 1.18685 7.78608 1.43944 7.50191L3.43944 5.25191C3.71463 4.94233 4.18869 4.91444 4.49827 5.18963ZM11.5017 5.18963C11.8113 4.91444 12.2854 4.94233 12.5606 5.25191L14.5606 7.50191C14.8131 7.78608 14.8131 8.2143 14.5606 8.49846L12.5606 10.7485C12.2854 11.058 11.8113 11.0859 11.5017 10.8107C11.1921 10.5356 11.1643 10.0615 11.4394 9.75191L12.9965 8.00019L11.4394 6.24846C11.1643 5.93887 11.1921 5.46482 11.5017 5.18963Z" fill="#212121"/>
</svg>

<svg xmlns="http://www.w3.org/2000/svg" width="16" height="16"><path d="M9.905 2.815a.75.75 0 0 1 .38.99l-4 9a.75.75 0 1 1-1.37-.61l4-9a.75.75 0 0 1 .99-.38ZM4.498 5.19a.75.75 0 0 1 .063 1.058L3.003 8l1.558 1.752a.75.75 0 1 1-1.122.996l-2-2.25a.75.75 0 0 1 0-.996l2-2.25A.75.75 0 0 1 4.5 5.19Zm7.004 0a.75.75 0 0 1 1.059.062l2 2.25a.75.75 0 0 1 0 .996l-2 2.25a.75.75 0 0 1-1.122-.996L12.996 8 11.44 6.248a.75.75 0 0 1 .063-1.058Z"/></svg>
